X: 402
T: Xin nongcun
%%abc-version 2.0
%%abcx-abcm2ps-target-version 5.9.1 (29 Sep 2008)
%%abc-creator hum2abc beta
%%abcx-conversion-date 2013/10/02 07:52:30
%%abc-edited-by Helmut Schaffrath
%%humdrum-veritas 4265436081
%%humdrum-veritas-data 1251627487
%%continueall 1
%%barnumbers 0
L: 1/16
M: 2/4
K: G
d2 d2 e d B A [I:setbarnb 1]| 
G F E GA4 | 
d2 d2 e d B A | 
G F E GA4 | 
A2 d2 e d B A | 
G2 D2 G2 F E | 
D D D E F2 A E | 
D8 |]  



